X: 17600
T: Hogan's Pass
R: hornpipe
M: 4/4
K: Dmajor
|:FG|(3ABA ^GB A=GFE|(3DED CE DA,CE|DFAF GABd|gfed cAFG|
(3ABA ^GB A=GFE|(3DED CE DA,CE|DFAF GABd|gece d2:|
|:fg|(3agf dB AGFE|(3DED FA dfga|bagf edcd|(3efe (3dcB (3ABA (3GFE|
DFAd (3fga fd|gfga ba^ga|fdAF GECE|(3DED FA d2:|

